X:309
T: SEHT WIE ER IM GLASE BLINKT
N: F0535
O: Europa, Mitteleuropa, Deutschland
R: Studenten -, Trink - Lied, Rundgesang
M: 4/4
L: 1/8
K: G
 | B2B2BAGF | E2E2E2z2 |
c3Ad3c | B2A2G2z2 |
B2B2BAGF | E2E2E2z2 |
c3Ad3c | B2A2G2z2 |
d2d2dedc | B2B2B2z2 |
d3dedcB | BAA2A2z2 |
c3Ad3c | B2A2G2z2 |
d2d2dedc | B2B2B2z2 |
d3dedcB | BAA2A2z2 |
c3Ad3c | B2A2G2z2

@@@ Tune index: 5740
